X: 69
T: My Darling Asleep
M: 6/8
R: Jig
L: 1/8
K: D
(d/e/) \
| "D"fdd "A7"cAA | "G"BAG "A7"A2G | "D"FAA "Bm"def | "Em"gfg "A7"eag |
 "D"fdd "A7"cAA | "G"BAG "A7"A2G | "D"FAA     def | "A7"gec "D"d2 :|
|: (A/G/) \
| "D"FAA  BAG | "D"FAA "G"B2A | "D"FAA "Bm"def | "Em"gfg "A7"eag |
"D"fdd "A7"cAA | "G"BAG "A7"A2G | "D"FAA     def | "A7"gec "D"d2 :|
